src/pos-icons/code-equal.svg

<svg height="24" viewBox="0 0 24 24" width="24" xmlns="http://www.w3.org/2000/svg"><path d="m6 13h5v2h-5m7-2h5v2h-5m0-6h5v2h-5m-7-2h5v2h-5m-1-8c-1.11 0-2 .9-2 2v14a2 2 0 0 0 2 2h14a2 2 0 0 0 2-2v-14a2 2 0 0 0 -2-2z"/></svg>

<?xml version="1.0" encoding="UTF-8"?><!DOCTYPE svg PUBLIC "-//W3C//DTD SVG 1.1//EN" "http://www.w3.org/Graphics/SVG/1.1/DTD/svg11.dtd"><svg xmlns="http://www.w3.org/2000/svg" xmlns:xlink="http://www.w3.org/1999/xlink" version="1.1" id="mdi-code-equal" width="24" height="24" viewBox="0 0 24 24"><path d="M6,13H11V15H6M13,13H18V15H13M13,9H18V11H13M6,9H11V11H6M5,3C3.89,3 3,3.9 3,5V19A2,2 0 0,0 5,21H19A2,2 0 0,0 21,19V5A2,2 0 0,0 19,3H5Z" /></svg>
